X: 413
T: Bir Sihr-i Tarâb
C: Rahmi Bey
O: Turkey
F: http://compmusic.upf.edu/node/140
N: suzinak--sarki--aksak--bir_sihr-i_tarab--rahmi_bey
N: makam= suzinak
N: form= sarki
N: usul= aksak = 9/8
M: 9/8
L: 1/16
K: C _1/4B _7/8e ^f 
Q: 1/4=120
%%MIDI tuningsystem comma53
g3f f3e e3d gfed c2 | d3ef2 eddc cBcd efg2  | 
w:  ARANAĞME  |   | 
g3f f3e e3d gfed c2 | B2 _7/8AGd2 cBBA AGG4z2  | 
w:   |   | 
g3f f3e e3d gfed c2 | d3ef2 eddc cBcd efg2  | 
w:  ARANAĞME  |   | 
g3f f3e e3d gfed c2 | B2 _7/8AGd2 cBBA AGG4z2  | 
w:   |   | 
c3d d4 efed edcB cd | zf eddc cBc8-c2  | 
w:  Bir  *  sihr_ i  *  ta *  rab   |  nağ *  *  me  *  i  *  sâ   | 
c3e d2c2 B2_7/8AB dcBA GF | G3_7/8AB2 c2d2 cBed cBcd  | 
w:  sâ  |  zın *  da ki  te  | 
c2d4fe dcBc d4 z2 | gf edcd efdf eded cBc2  | 
w:  sir   *  SAZ  |  Hep  *  *  *  ya *  *  *  re *  li  *  ses  | 
c3d efed d8 z2 | G4B4cc B_7/8AG4g2  | \
w:  ler *  le  *  e *  der   |  ru  | 
fedc B2c2 B2_7/8AG c2BA AG | 
w:  *  *  *  *  hu mu  tes  | 
G6 dedc Bcd4z2  | gfed cdef dfed edcB c2 | 
w:  hir   SAZ  |  Hep  *  *  *  ya *  *  *  re *  li  *  ses  | 
c3def edd8z2  | G4 B4 ccB_7/8A G4 g2 | \
w:  ler *  le  *  e *  der   |  ru  | 
fe dcB2 c2B2 _7/8AGc2 BAAG  | 
w:  *  *  *  *  hu mu  tes  | 
G6a_b ag=fg a4 z2 | g3aa4_7/8ba g=fga bc'ag  | 
w:  hir   SAZ  |  Hic *  ran ze *  de  *  sev  | 
g_bag g=fga bagf g6 | =f2 g8-g2_7/8ba gfed  | 
w:  *  da *  *  la *  rı  *  ey  |  ler   | 
cde=f g_bag g^ffe f2{g}fe ed | d6 fedc Bcd4z2  | 
w:  *  *  *  *  ba *  na  *  tas  |  vir   SAZ  | 
gfed cdef dfed edcB c2 | c3def edd8z2  | 
w:  Hep  *  *  *  ya *  *  *  re *  li  *  ses  |  ler *  le  *  e *  der   | 
G4 B4 ccB_7/8A G4 g2 | fe dcB2 c2B2 _7/8AGc2 BAAG  | 
w:  ru  |  *  *  *  *  hu mu  tes  | 
G6de dcBc d4 z2 | gf edcd efdf eded cBc2  | 
w:  hir   SAZ  |  Hep  *  *  *  ya *  *  *  re *  li  *  ses  | 
c3d efed d8 z2 | G4B4cc B_7/8AG4g2  | \
w:  ler *  le  *  e *  der   |  ru  | 
fedc B2c2 B2_7/8AG c2BA AG | 
w:  *  *  *  *  hu mu  tes  | 
G3edc cBB_7/8A AGG4z2  | |


